X:1
T:Fox-Trot
T:Fox-Trot
T:à Mademoiselle Georgette PINOT
T:Joseph BAICHÈRE
T:POUR PIANO
T:8232
T:8232
C:Joseph BAICHÈRE
Z:POUR PIANO
Z:8232
%%score { ( 1 4 ) | ( 2 3 ) }
L:1/8
Q:1/4=180
M:2/2
K:C
V:1 treble nm="Piano" snm="Pno."
V:4 treble 
V:2 bass 
V:3 bass 
V:1
!f! !^![cegc']2 (g^f gfgf | .g2) (e^d eded | .e2) GG .G2 .G2 |!f! .[GBdg] z!p! G2 A2 c2 || %4
S .e2 (G^F GFGE | .C2)!<(! G2 A2 c2!<)! | .[Bf]2 (A^G AGAF | .D2) (ed ^c2) d2 | .g2 (ed B2) c2 | %9
 .[Aa]2 (A^G AGAG | .A2) (f!<(!e ^c2) d2!<)! |!f! .d'2!p! G2 A2 c2 | .e2 (G^F GFGE | %13
 .C2)!<(! G2 A2 c2!<)! | .[Bf]2 (A^G AGAF | .D2) (ed!<(! ^c2) d2!<)! | .g2 (ed!<(! B2) c2!<)! | %17
 .[Aa]2 (ba ^g2) a2 |!f! .d'2 (G^F GFGE | .C2)!ff! GG .[Ec]2"^FIN" z2!fine! || %20
!f! .[Ee]2 .[Ee].[Ee] .[Ee]2 .[Ee]2 | .[Ee]2!mf! [^GB]2!<(! [Ac]2 [Bd]2!<)! |: [Bd]2 (E^D EDED | %23
 .E2)!<(! ([Bd]2 [ce]2 [df]2)!<)! | .[Acf]2 (E^D EDED | .E2)!<(! ([ce]2 [Bd]2 [Ac]2)!<)! | %26
 [fa]2 (D^C DCDC | .D2) [^Gdf][Gdf] [Gdf]2 [Gdf]2 | [^Gdf]2 [DG][DG] .[DG]2 .[DG]2 |1 %29
 .[D^G]2 [GB]2 [Ac]2 [Bd]2 :|2 [CEA]2!p! =G2 A2 c2 || e2 (G^F GFGE | .C2)!<(! G2 A2 c2!<)! | %33
 .[Bf]2 (A^G AGAF | .D2) (ed ^c2) d2 | .g2 (ed B2) c2 | [Aa]2 (A^G AGAG | %37
 .A2) (f!<(!e ^c2) d2!<)! |!f! .d'2 GG .G2 .G2 ||[K:F]!mf! e3!<(! e f2 g2!<)! | d3 d e4 | %41
!<(! ^c3 c d2 e2!<)! | ^c3 c d4 |!<(! ^d3 d ed e2!<)! | f3 f g^f g2 | (^GAce .d2) (cA) | [Be]8 | %47
!mf! e3 e f2 g2 |!<(! d3 d!<)! e4 | ^c3 c d2!<(! e2 | ^c3!<)! c d4 | ^d3 d ed e2 | f3 f g^f g2 | %53
 (^GAce .d2) (cA) |!ff! .f2!p! =G2!<(! A2 c2!<)!!D.S.! || %55
V:2
 C,,2 z2 [E,G,C]4 |"^cresc." [E,,E,]2 z2 [G,CE]4 | [G,,G,]2 z2 [G,_B,CE]2 z2 | [G,,,G,,] z z2 z4 || %4
 C,2 [E,G,]2 G,,2 [E,G,]2 | C,2 [E,G,]2 G,,2 [E,G,]2 | D,2 [F,G,B,]2 G,,2 [F,G,B,]2 | %7
 B,,2 [F,G,B,]4 [F,G,B,]2 | z2 [G,C]4 [G,C]2 | A,,2 [^C,G,]4 [C,G,]2 | D,2 [F,A,]4 [_A,,_A,]2 | %11
 .[G,,G,]2 z2 z4 | C,2 [E,G,]2 G,,2 [E,G,]2 | C,2 [E,G,]2 G,,2 [E,G,]2 | %14
"^cresc." D,2 [F,G,B,]2 G,,2 [F,G,B,]2 | B,,2 [F,G,B,]4 [F,G,B,]2 | z2 [G,C]4 [G,C]2 | %17
 z2 [^F,C]4 [F,C]2 | .G,,2 [F,G,B,]4 [F,G,B,]2 | C,2 G,,2 [C,,C,]2 z2 || %20
 E,,2"_A. GILLON Editeur, 31 rue Cortejaire Cereassonne" E,2 E,,2 E,2 | .E,,2 z2 z4 |: %22
 E,,2 [E,^G,=D]4 [E,G,D]2 | .E,,2 z2 z4 | .A,,2 [E,A,C]4 [E,A,C]2 | .A,,2 z2 z4 | %26
 D,2 [F,A,B,]4 [F,A,B,]2 | E,2 [^G,D]4 [G,D]2 | E,,2 [E,A,]4 [E,B,]2 |1 [E,B,]2 z2 z4 :|2 %30
 .A,,2 z2 z4 || C,2 [E,G,]2 G,,2 [E,G,]2 | C,2 [E,G,]2 G,,2 [E,G,]2 | %33
 D,2 [F,G,B,]2 G,,2 [F,G,B,]2 | B,,2 [F,G,B,]4 [F,G,B,]2 | z2 [G,C]4 [G,C]2 | %36
 A,,2 [^C,G,]4 [C,G,]2 | D,2 [F,A,]4 (([_A,,_A,]2 | .[G,,G,]2)) z2 z4 ||[K:F] C,2 [B,CE]4 [B,CE]2 | %40
 G,2 [B,CE]4 [B,CE]2 | .F,,2 [F,A,]4 [F,A,]2 | .F,,2 [F,A,]4 [F,A,]2 | C,2 [^F,A,]2 ^C,2 [F,A,]2 | %44
 z2 [F,B,]2 z2 [F,=B,]2 | C,2 [F,A,C]4 [^F,A,CD]2 | G,2 (.[B,CE].[B,CE] .[B,CE]2 .[B,CE]2) | %47
 C,2 [B,CE]4 [B,CE]2 | G,2 [B,CE]4 [B,CE]2 | .F,,2 [F,A,]4 [F,A,]2 | .F,,2 [F,A,]4 [F,A,]2 | %51
"^cresc." C,2 [^F,A,]2 ^C,2 [F,A,]2 | z2 [F,B,]2 z2 [F,=B,]2 | C,2 [A,C]2 C,2 [B,CE]2 | %54
 F,,2 z2 z4 || %55
V:3
 x8 | x8 | x8 | x8 || x8 | x8 | x8 | x8 | E,8 | x8 | x8 | x8 | x8 | x8 | x8 | x8 | E,8 | D,8 | x8 | %19
 x8 || x8 | x8 |: x8 | x8 | x8 | x8 | x8 | x8 | x8 |1 x8 :|2 x8 || x8 | x8 | x8 | x8 | E,8 | x8 | %37
 x8 | x8 ||[K:F] x8 | x8 | x8 | x8 | x8 | D,4 _D,4 | x8 | x8 | x8 | x8 | x8 | x8 | x8 | D,4 _D,4 | %53
 x8 | x8 || %55
V:4
 x8 | x8 | x8 | x8 || x8 | x8 | x8 | x8 | x8 | x8 | x8 | x8 | x8 | x8 | x8 | x8 | x8 | x8 | x8 | %19
 x8 || x8 | x8 |: x8 | x8 | x8 | x8 | x8 | x8 | x8 |1 x8 :|2 x8 || x8 | x8 | x8 | x8 | x8 | x8 | %37
 x8 | x8 ||[K:F] B8 | B8 | A8 | A8 | A4 B4 | B4 =B4 | x8 | x8 | B8 | B8 | A8 | A8 | A4 B4 | %52
 B4 =B4 | x8 | x8 || %55

